resources/svg/new-under-development.svg

<svg xmlns="http://www.w3.org/2000/svg" width="24" height="24" fill="none"><path fill="#252525" fill-rule="evenodd" d="M2 5a3 3 0 0 1 3-3h14a3 3 0 0 1 3 3v14a3 3 0 0 1-3 3H5a3 3 0 0 1-3-3V5Zm3.5 7c0 .83.67 1.5 1.5 1.5s1.5-.67 1.5-1.5-.67-1.5-1.5-1.5-1.5.67-1.5 1.5Zm5 0c0 .83.67 1.5 1.5 1.5s1.5-.67 1.5-1.5-.67-1.5-1.5-1.5-1.5.67-1.5 1.5Zm5 0c0 .83.67 1.5 1.5 1.5s1.5-.67 1.5-1.5-.67-1.5-1.5-1.5-1.5.67-1.5 1.5Z" clip-rule="evenodd"/></svg>

<svg width="24" height="24" viewBox="0 0 24 24" fill="none" xmlns="http://www.w3.org/2000/svg">
<path fill-rule="evenodd" clip-rule="evenodd" d="M2 5C2 3.34315 3.34315 2 5 2H19C20.6569 2 22 3.34315 22 5V19C22 20.6569 20.6569 22 19 22H5C3.34315 22 2 20.6569 2 19V5ZM5.5 12C5.5 12.83 6.17 13.5 7 13.5C7.83 13.5 8.5 12.83 8.5 12C8.5 11.17 7.83 10.5 7 10.5C6.17 10.5 5.5 11.17 5.5 12ZM10.5 12C10.5 12.83 11.17 13.5 12 13.5C12.83 13.5 13.5 12.83 13.5 12C13.5 11.17 12.83 10.5 12 10.5C11.17 10.5 10.5 11.17 10.5 12ZM15.5 12C15.5 12.83 16.17 13.5 17 13.5C17.83 13.5 18.5 12.83 18.5 12C18.5 11.17 17.83 10.5 17 10.5C16.17 10.5 15.5 11.17 15.5 12Z" fill="#252525"/>
</svg>
